X:1
T: Lady Louisa Russell's Jig
C:William Marshall
R:Jig
Q:180
K:Bb
M:6/8
L:1/16
f4d2 f4d2|B4B2 B2c2d2|e4c2 d4B2|c2A2F2 F6|f4d2 f4d2|B4B2 B2c2d2|e2f2g2 f2b2a2|g2a2=e2 f6|
f4d2 f4d2|B4B2 B2c2d2|e4c2 d4B2|c2A2F2 F6|f4d2 f4d2|B4B2 B2c2d2|e2f2g2 f2b2a2|b2g2=e2 f6|
F4F2 e4c2|d4B2 c2A2F2|F2A2F2 B2d2B2|d2f2d2 c6|F4F2 e4c2|d4B2 c2d2e2|d2e2f2 g2b2a2|g2a2=e2 f6|
g4e2 g2f2e2|f4d2 f2e2d2|e4c2 g2f2e2|d2c2B2 A2G2F2|g4e2 g2f2e2|f4d2 f2e2d2|e2f2g2 f4F2|B6B6||
